/* XPM */
static char *_ae7f465123846b9ea3207dab389a7560crFuXCjZI26wTIk[] = {
/* columns rows colors chars-per-pixel */
"16 16 3 1 ",
"  c #2BAA30",
". c #4FCE54",
"X c #66E86B",
/* pixels */
".X..............",
"........ .....X.",
"..... ..... ....",
"................",
"...X...X....... ",
".......... .....",
". ... ....... ..",
"................",
"...X.....X. ....",
"................",
"....... .....X. ",
"................",
". ...X.....X....",
"........ ..... .",
"... ....... ....",
"................"
};
