/* XPM */
static char *_93fced63b7b4e08cd9db54eee44c044O5CdVciBr1MDbJgT[] = {
/* columns rows colors chars-per-pixel */
"32 32 15 1 ",
"  c None",
". c black",
"X c #222222",
"o c #444444",
"O c gray40",
"+ c #993300",
"@ c red",
"# c #996633",
"$ c #FFCC00",
"% c #FFFF33",
"& c #CC9966",
"* c #888888",
"= c #AAAAAA",
"- c #FFCC99",
"; c white",
/* pixels */
"                                ",
"             .......            ",
"           ..&&&&&&&..          ",
"          .&&#######&&.         ",
"         .&##@@$%$@@##&.        ",
"         .&@@@@$$$@@@@&.        ",
"          .............         ",
"          .-.O=;;=*OoX.         ",
"         .--...........         ",
"        .--.#.#####.#.-.        ",
"       ..--.&;..-..;---.        ",
"       .&..&-;.;-;.;-&-.        ",
"      .&&&.#---------..         ",
"      .&&&..---+++---.          ",
"     .&&&&.#..-----..           ",
"     .&&&&&&@#.....             ",
"      ..&&&&&&@@@@@....         ",
"        ..&.&&&#;&&&&@&.        ",
"          ..##&#&&&;;&&.        ",
"           .&&&#;&&&&.&&.       ",
"           .&&&#&&&&&.&&.       ",
"           .##&#;&&##.&&.       ",
"          .&&&&#&&&&&&...       ",
"          .............-.       ",
"          .&&&&&.&&&&&..        ",
"           .&&&&.&&&&.          ",
"            .........           ",
"            .=oX.Xo=.           ",
"            .=oX.Xo=.           ",
"            .=oX.Xo=.           ",
"           ...........          ",
"                                "
};
