/* XPM */
static char *_143614deee44e8bd2a870bf5c745a3eFzC80rZy9sCq2yvQ[] = {
/* columns rows colors chars-per-pixel */
"32 32 10 1 ",
"  c None",
". c black",
"X c #663300",
"o c #333366",
"O c #996600",
"+ c #996633",
"@ c #999966",
"# c #666699",
"$ c #CCCC99",
"% c #9999CC",
/* pixels */
"                                ",
"                                ",
"                                ",
"         .           .          ",
"         .           .          ",
"         .............          ",
"    .    .%%%%%.%%%%%.    .     ",
"    .    .%%%%.O.%%%%.    .     ",
"    .   .#%#%.O$O.%#%#.   .     ",
"   .%.  .%.%#.$.$.#%.%.  .%.    ",
"   .%. .%.O.%.O.O.%.O.%. .%.    ",
"  .%%#.oo.$.o.$O$.o.$.oo.%%#.   ",
"  .%%#.$O$O$O$O$O$O$O$O$.%%#.   ",
" .%%%##.$O.O$.$O$.$O.O$.%%%##.  ",
".ooooooo.$.$O.O$O.O$.$.ooooooo. ",
" .OXOXO.$O$O$O$O$O$O$O$.OXOXO.  ",
" .$O$O$.O$.$O.O$O.O$.$O.$O$O$.  ",
"  .XXX.O$O.O$.$O$.$O.O$O.XXX.   ",
"  .O$O.@O@O@O@O@O@O@O@O@.O$O.   ",
"  .$.$...O...O...O...O...$.$.   ",
"  .O.O.$...$...$...$...$.O.O.   ",
"  .$O$.O$O$O$O$O$O$O$O$O.$O$.   ",
"  .O$O.$O$O$O@...@O$O$O$.O$O.   ",
"  .$O$.O$O$O@.XXX.@O$O$O.$O$.   ",
"  .O$O.$O$O$.X+++X.$O$O$.O$O.   ",
"  .$O$.O$O$O.X+++X.O$O$O.$O$.   ",
"  .O$O.$O$O$.X+++X.$O$O$.O$O.   ",
"  .$O$.O$O$O.X+++X.O$O$O.$O$.   ",
"  ...........................   ",
"                                ",
"                                ",
"                                "
};
