/* XPM */
static char *f56f2c84bb09426afecb9ed6f353b88enFgLsehWv1KPfRQ2[] = {
/* columns rows colors chars-per-pixel */
"32 32 3 1 ",
"  c #8E8E8E",
". c gray59",
"X c #A4A4A4",
/* pixels */
"                                ",
"                     X          ",
"X      ..                      X",
"X      ..      .            .  X",
"                                ",
"                 XX  ..         ",
"                 XX  ..         ",
"       .    ..                  ",
"            ..                  ",
"                            .   ",
"   ..     X                     ",
"   ..                           ",
"                                ",
"X        .       .          XX  ",
"                            XX  ",
"              X         ..      ",
"      X                 ..      ",
"                                ",
"                                ",
"  .      ..      X     .        ",
"         ..                     ",
"                                ",
"                             .  ",
"                  .             ",
"     .                          ",
"          XX            .       ",
"          XX                    ",
"                                ",
"  ..                        ..  ",
"  ..         ..          X  ..  ",
"       X     ..                 ",
"                                "
};
