/* XPM */
static char *_a2ebf700a5d4bf39ec38cd41c219643a03Xu9iZFdFB4xE6[] = {
/* columns rows colors chars-per-pixel */
"32 32 8 1 ",
"  c None",
". c #996600",
"X c #CC9900",
"o c #FFCC00",
"O c #FFCC33",
"+ c #FFFF33",
"@ c #FFFF66",
"# c #FFFF99",
/* pixels */
"                 oooooooo       ",
"               oo@@@@@@@@oo     ",
"             oo@@@@@o@o@o@oX    ",
"            o@@@@X+#@o@o@o@oX   ",
"           o@@o@@@X+#@o@o@o@oX  ",
"          o@@+#o@O@X+#@o@o@oo@. ",
"         o@@oX+#o@O@X+#@o@o@oo. ",
"        o@@o@oX+#o@o@X+#oo@oo@X.",
"       o@+#@o@oX+#o@o@X+#@o@ooX.",
"      o@@X+#@o@oX+#o@o@X+#ooooX.",
"     o@@o@X+#@o@oX+#ooooX+#oooX.",
"    o@@o@o@X+#@o@oX+#o@o@X++ooX.",
"   o@@++o@o@X+#oo@oX+#ooooXXooX.",
"  o@@oX++o@O@X+#ooooX+#oooooooX.",
"  o@o@oX++o@O@X+#@o@oX+#oooooXX.",
" o@o@o@oX++o@o@X+#ooooX++ooooX. ",
" o@++@o@oX++o@o@X+#@o@oXXoooXX. ",
"X@@X+#@o@oX++o@o@X+#ooooooooX.  ",
"X@o@X+#@o@oX++ooooX++o@ooooXX.  ",
"X@@o@X+#@o@oX++o@o@X++ooooXX.   ",
".@o@o@X+#@o@oX++ooooXXoooXX.    ",
".o@o@o@X+#@o@oX++o@oooooXX.     ",
".Xo@o@ooX+#ooooX++oooooXX.      ",
".Xoooo@o@X+#ooooXXooooXX.       ",
" .X@o@o@ooX++ooooooooXX.        ",
" .XXoo@o@o@X++oooOooXX.         ",
"  .XXoooo@ooXXoooooXX.          ",
"   .XXooooooooooooXX.           ",
"    .XXXooooooooXXX.            ",
"     ..XXXooooXXX..             ",
"       ..XXXXXX..               ",
"         ......                 "
};
