/* XPM */
static char *_436e6ccf9cc455cd432d7dc8e125707RuT39ugSig2wUlnE[] = {
/* columns rows colors chars-per-pixel */
"32 32 17 1 ",
"  c None",
". c black",
"X c #333300",
"o c #222222",
"O c gray20",
"+ c #663300",
"@ c #666633",
"# c #444444",
"$ c gray40",
"% c #777777",
"& c #996633",
"* c #999966",
"= c #CC9966",
"- c #BBBBBB",
"; c #CCCC99",
": c #FFCC99",
"> c white",
/* pixels */
"                                ",
"           .....                ",
"         ..==***..              ",
"        .;**@@+@&&.             ",
"       .==*++X@+&X@.            ",
"      .**@@&X@@@XXX&.           ",
"      .*@@X@@&+@@@&+.           ",
"     .*@X@+X@XX+X@+@X.          ",
"     .*@XXX@........@.          ",
"     .&X@++.&&&&&&&&.X.         ",
"     .+&@+.&&..&&..&.X.         ",
"    .@@...&==.>==.>=.X.         ",
"    ...&&.=::..::..:..          ",
"     ..=::::::::&:::.       #.  ",
"       ...X&:::::::. ...    ### ",
"         .:XXXXXXX...$$$.###... ",
"       ....:X::...$...###...    ",
"      .&+@+....%%%.:::...       ",
" ......&@...%%%###.:::.         ",
" .$$$.@@@.#####.......:.        ",
" .###.++........O.@&.::.        ",
" .ooo.&.:::::.@.O.@+.....       ",
" .oo....::::....OO.@&&+@+. ...  ",
" ...   ..&::.&@@...@@&@@@..o#$. ",
"    ...&+.O.+&@&+@@++@+&.oo---. ",
"   .$$.+@...+@@&....+@+.oo%--.  ",
"   .##.@@@@@@...    ....o--%.   ",
"  .ooo..+&&..           .--.    ",
"  .oo.  ...              ..     ",
"  .oo.                          ",
"   ..                           ",
"                                "
};
