/* XPM */
static char *_6d2361a86594a9bfc600d7716dfed59Rqutdmouvmt7YebM[] = {
/* columns rows colors chars-per-pixel */
"32 32 10 1 ",
"  c None",
". c black",
"X c #000044",
"o c #333366",
"O c gray40",
"+ c #666699",
"@ c #9999CC",
"# c #DDDDDD",
"$ c #CCCCFF",
"% c white",
/* pixels */
"           ..........           ",
"        ...$$$$$$$$$$...        ",
"      ..%%%oooooooooo$$$..      ",
"     .%%ooo##O$$$$$$+ooo@@.     ",
"    .%+o$$O%#O$$$$$$$@@+o+@.    ",
"    .%o@$$$OO$$$$$$$$$$@@o@.    ",
"     .%$@@$$$$$$$$$$$$$@@$.     ",
"     .+%%%@$$$$$$$$$$@@$$X.     ",
"     .+++@%%%%%$%$%$%$$XXX.     ",
"     .++o+oooooooooXoXoXXX.     ",
"     .+++o+oooooXoXoXoXXXX.     ",
"    .@++o+oooXoXoXoXoXoXoXo.    ",
"    .+@@+o+oooXoXoXoXoXo+o+.    ",
"     .oo@@@ooooooXoXo+++oX.     ",
"     .++oo+@@@@@+@+@++XoXX.     ",
"     .++o+oooXoXoXoXoXoXXX.     ",
"     .+++oooooXoXoXoXoXoXX.     ",
"     .++o+oooXoXoXoXoXoXXX.     ",
"     .+++oooXoXoXoXoXoXoXX.     ",
"    .@++o+oooXoXoXoXoXoXoXo.    ",
"    .+@@+oooooXoXoXoXoXo+o+.    ",
"     .oo@@@ooooXoXoXo+++oX.     ",
"     .+ooo+@@@@@+@+++oXoXX.     ",
"     .++o+oooooXoXoXoXoXXX.     ",
"     .+++oooooooXoXoXoXXXX.     ",
"     .++o+oooXoXoXoXoXXXXX.     ",
"    .@+++oooooXoXoXoXoXXXXo.    ",
"    .@++o+oooooXoXoXoXXXXo+.    ",
"     .@@+oooooXoXoXoXXXo++.     ",
"      ..@@@+oooXoXoXo+++..      ",
"        ...@@@@@+@+++...        ",
"           ..........           "
};
